Papirus/22x22/panel/security-low.svg

<?xml version="1.0" encoding="UTF-8" standalone="no"?>
<svg xmlns:osb="http://www.openswatchbook.org/uri/2009/osb" xmlns:dc="http://purl.org/dc/elements/1.1/" xmlns:cc="http://creativecommons.org/ns#" xmlns:rdf="http://www.w3.org/1999/02/22-rdf-syntax-ns#" xmlns:svg="http://www.w3.org/2000/svg" xmlns="http://www.w3.org/2000/svg" width="22" version="1.1" style="enable-background:new" id="svg7384" height="22">
    <metadata id="metadata90">
        <rdf:RDF>
            <cc:Work rdf:about="">
                <dc:format>
                    image/svg+xml
                </dc:format>
                <dc:type rdf:resource="http://purl.org/dc/dcmitype/StillImage"/>
                <dc:title>
                    Paper Symbolic Icon Theme
                </dc:title>
            </cc:Work>
        </rdf:RDF>
    </metadata>
    <title id="title8473">
        Paper Symbolic Icon Theme
    </title>
    <defs id="defs7386">
        <linearGradient osb:paint="solid" id="linearGradient5606">
            <stop style="stop-color:#ffffff;stop-opacity:1;" offset="0" id="stop5608"/>
        </linearGradient>
        <filter style="color-interpolation-filters:sRGB" id="filter7554">
            <feBlend mode="darken" in2="BackgroundImage" id="feBlend7556"/>
        </filter>
    </defs>
    <g transform="translate(-545.00041,401.01034)" style="display:inline" id="layer9">
        <path id="path4157" transform="translate(545.00041,-401.01034)" d="M 4 3 L 4 11.603516 C 3.99976 16.551346 11 19 11 19 C 11 19 17.99976 16.551346 18 11.603516 L 18 3 L 4 3 z M 6 5 L 11 5 L 11 10 L 16 10 L 16 12.199219 C 15.99973 15.811629 11 17 11 17 L 11 10 L 6 10 L 6 5 z " style="color:#bebebe;font-style:normal;font-variant:normal;font-weight:normal;font-stretch:normal;font-size:medium;line-height:normal;font-family:Sans;-inkscape-font-specification:Sans;text-indent:0;text-align:start;text-decoration:none;text-decoration-line:none;letter-spacing:normal;word-spacing:normal;text-transform:none;direction:ltr;block-progression:tb;writing-mode:lr-tb;baseline-shift:baseline;text-anchor:start;display:inline;overflow:visible;visibility:visible;opacity:1;fill:#5294e2;fill-opacity:1;stroke:none;stroke-width:2;marker:none;enable-background:accumulate"/>
    </g>
</svg>

<?xml version="1.0" encoding="UTF-8" standalone="no"?>
<svg id="svg7384" xmlns:rdf="http://www.w3.org/1999/02/22-rdf-syntax-ns#" style="enable-background:new" xmlns="http://www.w3.org/2000/svg" xmlns:osb="http://www.openswatchbook.org/uri/2009/osb" height="22" width="22" version="1.1" xmlns:cc="http://creativecommons.org/ns#" xmlns:dc="http://purl.org/dc/elements/1.1/">
 <metadata id="metadata90">
  <rdf:RDF>
   <cc:Work rdf:about="">
    <dc:format>image/svg+xml</dc:format>
    <dc:type rdf:resource="http://purl.org/dc/dcmitype/StillImage"/>
   </cc:Work>
  </rdf:RDF>
 </metadata>
 <g id="layer9" transform="translate(-545 401.01)">
  <path id="path4157" style="color:#bebebe;text-indent:0;block-progression:tb;text-decoration-line:none;enable-background:accumulate;text-transform:none" d="m4 3v8.604c-0.0002 4.947 7 7.396 7 7.396s7-2.449 7-7.396v-8.604h-14zm2 2h5v5h5v2.199c0 3.613-5 4.801-5 4.801v-7h-5v-5z" transform="translate(545 -401.01)" fill="#5294e2"/>
 </g>
</svg>
